src/assets/buttons/smd-button.svg

<svg width="32" height="32" xmlns="http://www.w3.org/2000/svg">
 <defs>
  <linearGradient y2="0.999972" x2="0.499965" y1="-0.000033" x1="0.499965" id="SVGID_1_">
   <stop stop-color="#333333" id="stop3064" offset="0"/>
   <stop stop-color="#4D4D4D" id="stop3066" offset="1"/>
  </linearGradient>
 </defs>
 <g>
  <title>background</title>
  <rect fill="none" id="canvas_background" height="402" width="582" y="-1" x="-1"/>
 </g>
 <g>
  <title>Layer 1</title>
  <g display="inline" transform="rotate(-90 15.794498443603521,16.000001907348636) matrix(0.9702667,0,0,0.9702556,3.7292331,-0.022315822) " id="icon">
   <g id="g3038">
    <g id="g10022">
     <polygon fill="#b3b3b3" id="polygon3041" points="20.82,33.003 20.82,21.51 24.037,21.51 24.037,33.003 20.82,33.003 "/>
     <polygon fill="#b3b3b3" id="polygon3043" points="0.831,11.516 0.831,0.024 4.047,0.024 4.047,11.516 0.831,11.516 "/>
     <polygon fill="#b3b3b3" id="polygon3045" points="20.82,11.517 20.82,0.023 24.037,0.023 24.037,11.517 20.82,11.517 "/>
     <polygon fill="#b3b3b3" id="polygon3047" points="0.832,33.004 0.832,21.511 4.049,21.511 4.049,33.004 0.832,33.004 "/>
     <rect id="rect3049" height="24.518999" width="24.518" y="4.255" x="0.176"/>
     <path fill="#999999" id="path3051" d="m24.693,26.775c0,1.101 -0.898,1.999 -2,1.999l-20.518,0c-1.1,0 -1.999,-0.898 -1.999,-1.999l0,-20.522c0,-1.1 0.899,-1.998 1.999,-1.998l20.521,0c1.101,0 1.998,0.898 1.998,1.998l0,20.522l-0.001,0z"/>
     <circle id="circle3053" r="2.124" cy="7.826" cx="3.747"/>
     <circle id="circle3055" r="2.124" cy="7.863" cx="21.181999"/>
     <circle id="circle3057" r="2.124" cy="25.298" cx="21.145"/>
     <circle id="circle3059" r="2.124" cy="25.26" cx="3.71"/>
     <circle fill="#3f3f3f" id="circle3061" r="7.15" cy="16.514" cx="12.434"/>
     <circle fill="url(#SVGID_1_)" id="circle3068" r="7.15" cy="16.514" cx="12.434"/>
     <circle opacity="0.6" id="circle3070" r="6.292" cy="17.364" cx="12.559"/>
     <circle fill="#735348" id="circle3072" r="6.132" cy="16.556" cx="12.443"/>
     <path opacity="0.5" fill="#ffffff" id="path3074" d="m3.472,7.715c0.042,-0.101 0.119,-0.177 0.227,-0.197l-0.208,-1.338c-0.081,0.014 -0.165,0.003 -0.245,0.027l-0.002,-0.006c-0.495,0.153 -0.865,0.521 -1.054,0.993l1.282,0.521z"/>
     <path opacity="0.5" fill="#ffffff" id="path3076" d="m20.906,7.751c0.041,-0.102 0.119,-0.179 0.228,-0.197l-0.207,-1.338c-0.082,0.014 -0.166,0.002 -0.245,0.027l-0.003,-0.008c-0.493,0.153 -0.864,0.521 -1.053,0.993l1.28,0.523z"/>
     <path opacity="0.5" fill="#ffffff" id="path3078" d="m20.871,25.186c0.041,-0.1 0.117,-0.178 0.227,-0.197l-0.207,-1.337c-0.082,0.015 -0.166,0.002 -0.246,0.027l-0.002,-0.009c-0.494,0.153 -0.865,0.521 -1.053,0.994l1.281,0.522z"/>
     <path opacity="0.5" fill="#ffffff" id="path3080" d="m3.435,25.149c0.041,-0.1 0.118,-0.176 0.228,-0.195l-0.209,-1.339c-0.082,0.016 -0.166,0.002 -0.245,0.027l-0.002,-0.006c-0.495,0.151 -0.865,0.521 -1.054,0.993l1.282,0.52z"/>
     <path opacity="0.6" fill="#ffffff" id="path3082" d="m14.637,10.841c-0.475,-0.185 -0.975,-0.319 -1.504,-0.378c-1.316,-0.148 -2.576,0.144 -3.653,0.742l-0.134,0.348c1.203,-0.642 2.604,-0.942 4.061,-0.779c0.449,0.053 0.882,0.153 1.299,0.284l-0.069,-0.217z"/>
    </g>
   </g>
  </g>
 </g>
</svg>

<?xml version="1.0" encoding="UTF-8" standalone="no"?>
<svg
   version="1.0"
   baseProfile="tiny"
   width="32"
   height="32"
   id="svg2"
   xmlns="http://www.w3.org/2000/svg">
  <g
     id="icon"
     style="display:inline"
     transform="matrix(0.9702667,0,0,0.9702556,3.7292331,-2.2315822e-2)">
    <g
       id="g3038">
      <g
         id="g10022">
        <polygon
           points="20.82,33.003 20.82,21.51 24.037,21.51 24.037,33.003 20.82,33.003 "
           id="polygon3041"
           style="fill:#b3b3b3" />
        <polygon
           points="0.831,11.516 0.831,0.024 4.047,0.024 4.047,11.516 0.831,11.516 "
           id="polygon3043"
           style="fill:#b3b3b3" />
        <polygon
           points="20.82,11.517 20.82,0.023 24.037,0.023 24.037,11.517 20.82,11.517 "
           id="polygon3045"
           style="fill:#b3b3b3" />
        <polygon
           points="0.832,33.004 0.832,21.511 4.049,21.511 4.049,33.004 0.832,33.004 "
           id="polygon3047"
           style="fill:#b3b3b3" />
        <rect
           x="0.176"
           y="4.2550001"
           width="24.518"
           height="24.518999"
           id="rect3049" />
        <path
           d="M 24.693,26.775 C 24.693,27.876 23.795,28.774 22.693,28.774 L 2.175,28.774 C 1.075,28.774 0.176,27.876 0.176,26.775 L 0.176,6.253 C 0.176,5.153 1.075,4.255 2.175,4.255 L 22.696,4.255 C 23.797,4.255 24.694,5.153 24.694,6.253 L 24.694,26.775 L 24.693,26.775 z"
           id="path3051"
           style="fill:#999999" />
        <circle
           cx="3.747"
           cy="7.8260002"
           r="2.1240001"
           id="circle3053"/>
        <circle
           cx="21.181999"
           cy="7.8629999"
           r="2.1240001"
           id="circle3055" />
        <circle
           cx="21.145"
           cy="25.298"
           r="2.1240001"
           id="circle3057" />
        <circle
           cx="3.71"
           cy="25.26"
           r="2.1240001"
           id="circle3059" />
        <circle
           cx="12.434"
           cy="16.514"
           r="7.1500001"
           id="circle3061"
           style="fill:#3f3f3f" />
        <linearGradient
           id="SVGID_1_"
           gradientUnits="userSpaceOnUse"
           x1="12.4897"
           y1="810.97968"
           x2="12.4897"
           y2="825.28833"
           gradientTransform="matrix(0.9994,0,0,0.9994,-4.87e-2,-801.1296)">
          <stop
             offset="0"
             style="stop-color:#333333"
             id="stop3064" />
          <stop
             offset="1"
             style="stop-color:#4D4D4D"
             id="stop3066" />
        </linearGradient>
        <circle
           cx="12.434"
           cy="16.514"
           r="7.1500001"
           id="circle3068"
           style="fill:url(#SVGID_1_)" />
        <circle
           enable-background="new    "
           cx="12.559"
           cy="17.364"
           r="6.2919998"
           id="circle3070"
           style="opacity:0.6" />
        <circle
           cx="12.443"
           cy="16.556"
           r="6.132"
           id="circle3072"
           style="fill:#735348" />
        <path
           enable-background="new    "
           d="M 3.472,7.715 C 3.514,7.614 3.591,7.538 3.699,7.518 L 3.491,6.18 C 3.41,6.194 3.326,6.183 3.246,6.207 L 3.244,6.201 C 2.749,6.354 2.379,6.722 2.19,7.194 L 3.472,7.715 z"
           id="path3074"
           style="opacity:0.5;fill:#ffffff" />
        <path
           enable-background="new    "
           d="M 20.906,7.751 C 20.947,7.649 21.025,7.572 21.134,7.554 L 20.927,6.216 C 20.845,6.23 20.761,6.218 20.682,6.243 L 20.679,6.235 C 20.186,6.388 19.815,6.756 19.626,7.228 L 20.906,7.751 z"
           id="path3076"
           style="opacity:0.5;fill:#ffffff" />
        <path
           enable-background="new    "
           d="M 20.871,25.186 C 20.912,25.086 20.988,25.008 21.098,24.989 L 20.891,23.652 C 20.809,23.667 20.725,23.654 20.645,23.679 L 20.643,23.67 C 20.149,23.823 19.778,24.191 19.59,24.664 L 20.871,25.186 z"
           id="path3078"
           style="opacity:0.5;fill:#ffffff" />
        <path
           enable-background="new    "
           d="M 3.435,25.149 C 3.476,25.049 3.553,24.973 3.663,24.954 L 3.454,23.615 C 3.372,23.631 3.288,23.617 3.209,23.642 L 3.207,23.636 C 2.712,23.787 2.342,24.157 2.153,24.629 L 3.435,25.149 z"
           id="path3080"
           style="opacity:0.5;fill:#ffffff" />
        <path
           enable-background="new    "
           d="M 14.637,10.841 C 14.162,10.656 13.662,10.522 13.133,10.463 C 11.817,10.315 10.557,10.607 9.48,11.205 L 9.346,11.553 C 10.549,10.911 11.95,10.611 13.407,10.774 C 13.856,10.827 14.289,10.927 14.706,11.058 L 14.637,10.841 z"
           id="path3082"
           style="opacity:0.6;fill:#ffffff" />
      </g>
    </g>
  </g>
</svg>
